src/main/resources/icons/JavaUltimateIcons/icons/javaee/ejbClass.svg

<svg xmlns="http://www.w3.org/2000/svg" width="16" height="16" viewBox="0 0 16 16">
  <g fill="none" fill-rule="evenodd">
    <path fill="#935E2D" fill-opacity=".7" d="M6.34364231,5.71927648 L1.18693679,0.646125199 C2.58799263,-0.463749634 4.38406421,-0.0677171692 5.72661772,1.25370296 C7.06867121,2.57413915 7.47168727,4.34128028 6.34364231,5.71927648 Z M5.81312116,6.24174415 C4.41256535,7.35211095 2.61649376,6.95558652 1.27394026,5.63465836 C-0.0681132327,4.31422217 -0.471129295,2.54708103 0.656915663,1.16859287 L5.81312116,6.24174415 Z" transform="translate(9 9)"/>
    <path fill="#40B6E0" fill-opacity=".6" d="M14.8839685,9.27604806 C13.1424466,7.90026185 10.7538438,7.88301043 9.31842712,9.31842712 C7.88301043,10.7538438 7.90026185,13.1424466 9.27604806,14.8839685 C8.86229408,14.9601759 8.43579784,15 8,15 C4.134,15 1,11.866 1,8 C1,4.134 4.134,1 8,1 C11.866,1 15,4.134 15,8 C15,8.43579784 14.9601759,8.86229408 14.8839685,9.27604806 Z"/>
    <path fill="#231F20" fill-opacity=".7" d="M8.36980312,10.9886061 C8.25249657,10.9964032 8.13009939,11.0004 8.0022,11.0004 C6.3642,11.0004 5.0002,9.6824 5.0002,8.0004 C5.0002,6.3584 6.3402,5.0004 8.0982,5.0004 C9.28826904,5.0004 9.8293999,5.2701752 10.5162,5.83673096 L9.9,6.55426025 C9.54833171,6.18475342 8.94833171,6 8.1,6 C6.971,6 6,6.7124 6,8.0004 C6,9.2794 7.061,10.022 8.1,10 C8.3793443,9.99337761 8.62008807,9.96732192 8.83297792,9.92161298 C8.62153563,10.2518498 8.46739297,10.6117461 8.36980312,10.9886061 Z"/>
  </g>
</svg>

<svg xmlns="http://www.w3.org/2000/svg" width="16" height="16" viewBox="0 0 16 16"><rect id="frame" width="16" height="16" fill="none"/><g fill="none" fill-rule="evenodd"><path fill="#935E2D" fill-opacity=".7" d="M15.344 14.72l-5.157-5.074c1.401-1.11 3.197-.714 4.54.608 1.342 1.32 1.745 3.087.617 4.465zm-.53.522c-1.401 1.11-3.198.714-4.54-.607-1.342-1.32-1.745-3.088-.617-4.466l5.156 5.073z"/><path fill="#40B6E0" fill-opacity=".6" d="M14.884 9.276c-1.742-1.376-4.13-1.393-5.566.042-1.435 1.436-1.418 3.824-.042 5.566a7 7 0 1 1 5.608-5.608z"/><path fill="#231F20" fill-opacity=".7" d="M8.37 10.989c-.118.007-.24.011-.368.011A2.998 2.998 0 0 1 5 8c0-1.642 1.34-3 3.098-3 1.19 0 1.731.27 2.418.837l-.616.717C9.548 6.184 8.948 6 8.1 6 6.971 6 6 6.712 6 8c0 1.28 1.061 2.022 2.1 2 .28-.007.52-.033.733-.078a3.69 3.69 0 0 0-.463 1.067z"/></g></svg>
